src/web/modules/custom/workbc_custom/icons/epbc/education.svg

<svg width="34" height="40" viewBox="0 0 34 40" fill="none" xmlns="http://www.w3.org/2000/svg">
<path d="M0.666883 22.0003H20.667V24.0003C20.667 24.4003 20.9337 24.667 21.3337 24.667H30.0002C30.4002 24.667 30.6668 24.4003 30.6668 24.0003V22.0003H32.6668C33.0668 22.0003 33.3335 21.7337 33.3335 21.3337V0.66667C33.3335 0.266668 33.0668 0 32.6668 0H0.66667C0.266668 0 0 0.266668 0 0.66667V21.3337C0 21.7337 0.266881 22.0003 0.666883 22.0003ZM29.3339 23.3337H22.0003V16.0001C22.0003 15.6001 21.7337 15.3334 21.3337 15.3334H15.3338C14.9338 15.3334 14.6672 15.0667 14.6672 14.6667C14.6672 14.2667 14.9338 14.0001 15.3338 14.0001H23.0672L25.5339 16.4667C25.8005 16.7334 26.2005 16.7334 26.4672 16.4667L28.9339 14.0001H29.3339L29.3339 23.3337ZM1.33377 1.33377H32.0006V20.667H30.6673V13.3334C30.6673 12.9334 30.4006 12.6667 30.0006 12.6667H28.6672C28.4672 12.6667 28.3339 12.7334 28.2006 12.8667L26.0006 15.0667L23.8006 12.8667C23.6672 12.7334 23.5339 12.6667 23.3339 12.6667H15.3338C14.2005 12.6667 13.3338 13.5334 13.3338 14.6667C13.3338 15.8001 14.2005 16.6668 15.3338 16.6668H20.6672V20.6668H1.33398L1.33377 1.33377Z" fill="#870264"/>
<path d="M26.0003 12.6665C28.2003 12.6665 30.0003 10.8665 30.0003 8.66649C30.0003 6.4665 28.2003 4.66647 26.0003 4.66647C23.8003 4.66647 22.0003 6.4665 22.0003 8.66649C22.0003 10.8665 23.8003 12.6665 26.0003 12.6665ZM26.0003 5.99981C27.467 5.99981 28.667 7.19982 28.667 8.66649C28.667 10.1332 27.467 11.3332 26.0003 11.3332C24.5337 11.3332 23.3336 10.1332 23.3336 8.66649C23.3336 7.19982 24.5337 5.99981 26.0003 5.99981Z" fill="#870264"/>
<path d="M20.667 39.3333V31.9997C20.667 31.5997 20.4003 31.3331 20.0003 31.3331H19.3336C19.7336 30.7997 20.0003 30.0664 20.0003 29.333C20.0003 27.4664 18.5336 25.9997 16.667 25.9997C14.8003 25.9997 13.3336 27.4664 13.3336 29.333C13.3336 30.0664 13.6003 30.7997 14.0003 31.3331H13.3336C12.9336 31.3331 12.6669 31.5997 12.6669 31.9997V39.3333C12.6669 39.7333 12.9336 40 13.3336 40H20.0003C20.4003 40 20.667 39.7333 20.667 39.3333ZM16.667 27.3332C17.8003 27.3332 18.667 28.1999 18.667 29.3333C18.667 30.4666 17.8003 31.3333 16.667 31.3333C15.5336 31.3333 14.6669 30.4666 14.6669 29.3333C14.6669 28.1999 15.5336 27.3332 16.667 27.3332ZM19.3336 38.6664H14.0003V32.6666H19.3336V38.6664Z" fill="#870264"/>
<path d="M10.0003 39.3333V31.9997C10.0003 31.5997 9.73362 31.3331 9.33362 31.3331H8.66695C9.06695 30.7997 9.33362 30.0664 9.33362 29.333C9.33362 27.4664 7.86694 25.9997 6.00027 25.9997C4.13359 25.9997 2.66691 27.4664 2.66691 29.333C2.66691 30.0664 2.93358 30.7997 3.33358 31.3331H2.66691C2.26691 31.3331 2.00024 31.5997 2.00024 31.9997V39.3333C2.00024 39.7333 2.26691 40 2.66691 40H9.33362C9.73362 40 10.0003 39.7333 10.0003 39.3333ZM6.00027 27.3332C7.13358 27.3332 8.00028 28.1999 8.00028 29.3333C8.00028 30.4666 7.13363 31.3333 6.00027 31.3333C4.8669 31.3333 4.00025 30.4666 4.00025 29.3333C4.00025 28.1999 4.8669 27.3332 6.00027 27.3332ZM8.66695 38.6664H3.33358V32.6666H8.66695V38.6664Z" fill="#870264"/>
<path d="M31.3337 39.3333V31.9997C31.3337 31.5997 31.0671 31.3331 30.6671 31.3331H30.0004C30.4004 30.7997 30.6671 30.0664 30.6671 29.333C30.6671 27.4664 29.2004 25.9997 27.3337 25.9997C25.467 25.9997 24.0003 27.4664 24.0003 29.333C24.0003 30.0664 24.267 30.7997 24.667 31.3331H24.0003C23.6003 31.3331 23.3337 31.5997 23.3337 31.9997V39.3333C23.3337 39.7333 23.6003 40 24.0003 40H30.6671C31.0671 40 31.3337 39.7333 31.3337 39.3333ZM27.3337 27.3332C28.467 27.3332 29.3337 28.1999 29.3337 29.3333C29.3337 30.4666 28.4671 31.3333 27.3337 31.3333C26.2003 31.3333 25.3337 30.4666 25.3337 29.3333C25.3337 28.1999 26.2003 27.3332 27.3337 27.3332ZM30.0004 38.6664H24.667V32.6666H30.0004V38.6664Z" fill="#870264"/>
<path d="M3.33356 4.66647H13.3338V5.99981H3.33356V4.66647Z" fill="#870264"/>
<path d="M9.33337 8.66693H17.9999V10.0003H9.33337V8.66693Z" fill="#870264"/>
<path d="M3.33356 8.66693H6.66691V10.0003H3.33356V8.66693Z" fill="#870264"/>
<path d="M15.3336 4.66647H16.667V5.99981H15.3336V4.66647Z" fill="#870264"/>
</svg>

<?xml version="1.0" encoding="UTF-8"?>
<svg xmlns="http://www.w3.org/2000/svg" version="1.1" viewBox="0 0 34 40">
  <defs>
    <style>
      .cls-1 {
        fill: #880364;
      }
    </style>
  </defs>
  <!-- Generator: Adobe Illustrator 28.7.4, SVG Export Plug-In . SVG Version: 1.2.0 Build 166)  -->
  <g>
    <g id="Layer_1">
      <path class="cls-1" d="M.7,22h20v2c0,.4.3.7.7.7h8.7c.4,0,.7-.3.7-.7v-2h2c.4,0,.7-.3.7-.7V.7c0-.4-.3-.7-.7-.7H.7c-.4,0-.7.3-.7.7v20.7c0,.4.3.7.7.7ZM29.3,23.3h-7.3v-7.3c0-.4-.3-.7-.7-.7h-6c-.4,0-.7-.3-.7-.7s.3-.7.7-.7h7.7l2.5,2.5c.3.3.7.3.9,0l2.5-2.5h.4v9.3ZM1.3,1.3h30.7v19.3h-1.3v-7.3c0-.4-.3-.7-.7-.7h-1.3c-.2,0-.3,0-.5.2l-2.2,2.2-2.2-2.2c-.1-.1-.3-.2-.5-.2h-8c-1.1,0-2,.9-2,2s.9,2,2,2h5.3v4H1.3V1.3Z"/>
      <path class="cls-1" d="M26,12.7c2.2,0,4-1.8,4-4s-1.8-4-4-4-4,1.8-4,4,1.8,4,4,4ZM26,6c1.5,0,2.7,1.2,2.7,2.7s-1.2,2.7-2.7,2.7-2.7-1.2-2.7-2.7,1.2-2.7,2.7-2.7Z"/>
      <path class="cls-1" d="M20.7,39.3v-7.3c0-.4-.3-.7-.7-.7h-.7c.4-.5.7-1.3.7-2,0-1.9-1.5-3.3-3.3-3.3s-3.3,1.5-3.3,3.3.3,1.5.7,2h-.7c-.4,0-.7.3-.7.7v7.3c0,.4.3.7.7.7h6.7c.4,0,.7-.3.7-.7ZM16.7,27.3c1.1,0,2,.9,2,2s-.9,2-2,2-2-.9-2-2,.9-2,2-2ZM19.3,38.7h-5.3v-6h5.3v6Z"/>
      <path class="cls-1" d="M10,39.3v-7.3c0-.4-.3-.7-.7-.7h-.7c.4-.5.7-1.3.7-2,0-1.9-1.5-3.3-3.3-3.3s-3.3,1.5-3.3,3.3.3,1.5.7,2h-.7c-.4,0-.7.3-.7.7v7.3c0,.4.3.7.7.7h6.7c.4,0,.7-.3.7-.7ZM6,27.3c1.1,0,2,.9,2,2s-.9,2-2,2-2-.9-2-2,.9-2,2-2ZM8.7,38.7H3.3v-6h5.3v6Z"/>
      <path class="cls-1" d="M31.3,39.3v-7.3c0-.4-.3-.7-.7-.7h-.7c.4-.5.7-1.3.7-2,0-1.9-1.5-3.3-3.3-3.3s-3.3,1.5-3.3,3.3.3,1.5.7,2h-.7c-.4,0-.7.3-.7.7v7.3c0,.4.3.7.7.7h6.7c.4,0,.7-.3.7-.7ZM27.3,27.3c1.1,0,2,.9,2,2s-.9,2-2,2-2-.9-2-2,.9-2,2-2ZM30,38.7h-5.3v-6h5.3v6Z"/>
      <path class="cls-1" d="M3.3,4.7h10v1.3H3.3v-1.3Z"/>
      <path class="cls-1" d="M9.3,8.7h8.7v1.3h-8.7v-1.3Z"/>
      <path class="cls-1" d="M3.3,8.7h3.3v1.3h-3.3v-1.3Z"/>
      <path class="cls-1" d="M15.3,4.7h1.3v1.3h-1.3v-1.3Z"/>
    </g>
  </g>
</svg>
